X: 1
T: the Old Man
T: 30 Years' Waltz
O: 2009
C: attr. Fried de Metz Herman
R: waltz
Z: 2018 John Chambers <jc:trillian.mit.edu>
S: https://www.youtube.com/watch?v=UmVeP8GKHNE
B: "Serendipity"
M: 3/4
L: 1/8
K: Bm
F2 |\
"Bm"B2 Bc d2 | "F#"cd f2 e2 | "Bm"dc "Em"g2 "F#"f2 | "Bm"B4 fe |\
"Bm"dc B2 B2 | "D"AG FG A2 | "Bm"B2Bc "F#"^A2 | "Bm"B4 :|
|: "A"c2 |\
"D"dc df "G"g2 | "D"af d2 "A"c2 | "G"Bc "A7/c#"ed c2 | "D"d4 "F#"c^A |\
"Em"Bc dB GE | "Bm"F4 EF | "Em"GF EG "F#"F2 | "Bm"f4 :|
